X:1
T:Title
%%score { ( 1 3 ) | ( 2 4 ) }
L:1/8
M:4/4
K:Db
V:1 treble nm="Grand Piano"
V:3 treble 
V:2 bass 
V:4 bass 
V:1
 z4 z2[Q:1/4=94] [DF]>[EG] | [FA]>[Fd] [Ac]>[GB] [FA]<F D>E |[M:3/4] F>_F =F>G F2 |[M:1/4] F>[EG] | %4
[M:4/4] [FA]>[Fd] [Ac]>[GB] [FA]<F D>F |[M:3/4] [DF]>[CE] [CE]>[_C=D] [=CE]2 |[M:1/4] [CE]>[DF] | %7
[M:4/4] G>G e>d c<A B>c |[M:3/4] [Fd]>[Fd] [Fd]>[FB] [FA]2 |[M:1/4] D>E | %10
[M:4/4] F<[FA] [FA]>[B,EG] [DF]2[K:bass] [G,CE]2 |[M:3/4] [F,D]6 |[M:1/4][K:treble] [DFA]>[Fd] | %13
[M:3/4] c<c c>c c2 |[M:1/4] [CGB]>[Gc] |[M:4/4] [Fd] [Fd]2 [Gd] [Fd]2 [FA]>[FA] | %16
 [Fd]<[Fd] [Fd]>[DFA] [A,DF]2[K:bass] [F,D]2 | [CE]6[K:treble] z2 | D>D D>F A2 [DFA]>[DFA] | %19
 [DGB]>[B,GB] [=Ge]>[Gd] c2 B>A | [Fd]<[Fd] [_Fd]>[Fd] [=Fd]2 [Gc]2 |[M:3/4] [Fd]6 |] %22
V:2
 z4 z2 [D,A,]>[D,A,] | [D,D]>[D,A,] [D,A,]>[D,D] [D,D]<[D,A,D] [D,F,]>[D,G,D] | %2
[M:3/4] [D,A,D]>[D,=G,D] [D,A,D]>[D,B,D] [D,A,D]2 |[M:1/4] [D,A,D]>[D,A,] | %4
[M:4/4] [D,D]>[D,A,] [D,A,]>[D,D] [D,D]<[D,A,D] [D,F,]>[D,A,D] | %5
[M:3/4] [A,,A,]>[A,,A,] [A,,A,]>[A,,A,] [A,,A,]2 |[M:1/4] [A,,A,]>[A,,A,] | %7
[M:4/4][K:treble] [A,CE]>[A,CE] [A,CG]>[A,B,G] [A,G]<[A,CG] [A,G]>[A,G] | %8
[M:3/4][K:bass] [D,A,]>[D,A,] [D,A,]>[D,D] [D,D]2 |[M:1/4] [D,F,]>[D,G,D] | %10
[M:4/4] [D,A,D]<[D,D] [D,D]>G, A,2 A,,2 |[M:3/4] D,6 |[M:1/4] D,>[D,A,] | %13
[M:3/4] [A,E]<[A,E] [A,E]>[A,E] [A,E]2 |[M:1/4] A,,>[A,,A,] | %15
[M:4/4] [D,A,] [D,A,]2 [D,B,] [D,A,]2 [D,D]>[D,D] | [D,A,]<[D,A,] [D,A,]>D, D,2 D,2 | z4 A,2 z2 | %18
 D,>D, D,>F, A,2 D,>D, | G,>G, [E,B,]>[E,E][K:treble] [A,EA]2 [A,EG]>[A,CG] | %20
 [D,D]<[D,A,] [=A,,A,]>[A,,A,] [_A,,A,]2 [A,,A,]2 |[M:3/4] [D,A,]6 |] %22
V:3
 x8 | x8 |[M:3/4] x6 |[M:1/4] x2 |[M:4/4] x8 |[M:3/4] x6 |[M:1/4] x2 |[M:4/4] x8 |[M:3/4] x6 | %9
[M:1/4] x2 |[M:4/4] x6[K:bass] x2 |[M:3/4] x6 |[M:1/4][K:treble] x2 |[M:3/4] x6 |[M:1/4] x2 | %15
[M:4/4] x8 | x6[K:bass] x2 | A,2 z2 z2[K:treble] F>E | x8 | x8 | x8 |[M:3/4] x6 |] %22
V:4
 x8 | x8 |[M:3/4] x6 |[M:1/4] x2 |[M:4/4] x8 |[M:3/4] x6 |[M:1/4] x2 |[M:4/4][K:treble] x8 | %8
[M:3/4][K:bass] x6 |[M:1/4] x2 |[M:4/4] x8 |[M:3/4] x6 |[M:1/4] x2 |[M:3/4] x6 |[M:1/4] x2 | %15
[M:4/4] x8 | x8 | A,,2 A,>A, z/ G,3/2 F,>D, | x8 | x4[K:treble] x4 | x8 |[M:3/4] x6 |] %22

